X:1
T:Men of Harlech
M:4/4
L:1/4
K:G
 G3/2 F/2 E3/2 F/2| G A B G| c B A G| F E F D| G3/2 F/2 E3/2 F/2| G A B/2 e3/2|\
 d B A3/2 G/2| G4| A3/2 G/2 F3/2 G/2| A A- A2| d3/2 c/2 B3/2 c/2| d d- d3/2 d/2|\
 d3/2 c/2 B3/2 c/2| d3/2 c/2 B3/2 c/2|d/2-e/2d/2-c/2B/2-A/2B/2-c/2|\
 d d- d2| e e d d| c c B B|A/2-B/2c/2-B/2 A G| F E F D| G3/2 F/2 E3/2 F/2|\
 G A B e| d/2 B3/2 A3/2 G/2| G4|
